X:19037
T:Sir Roger de Coverley
T:Roger de Coverly
R:Slipjig
C:Trad. Playford 1685
O:England
Z:Paul Hardy's Session Tunebook 2015 (see www.paulhardy.net). Creative Commons cc by-nc-sa licenced.
M:9/8
L:1/8
Q:3/8=110
K:G
"G"G2G G2e dBG|"D"A2A ABG FED|"G"G2G G2e "D"def|"G"g2G "C"GAG "D"FED:|
|:"G"dBd "C"ece "G"dBG|"D"A2A ABG FED|"G"dBd "C"ece "G"dBG|"G"g2G "C"GAG "D"FED:|
|:"G"gag f2e dBG|"Am"E2A A2G "D"FED|"G"gag f2e "D"def|"G"g2G "C"GAG "D"FED:|

